build/img/icon/advantages-6.svg

<svg xmlns="http://www.w3.org/2000/svg" width="512" height="512" fill="none"><path d="M452.552 215.16l-19.296-3.856a15.957 15.957 0 01-12.552-12.552l-3.544-17.72a56.339 56.339 0 0017.36-21.024H440c17.648 0 32-14.352 32-32 0-7.208-2.48-13.792-6.52-19.144l2.928-8.784A69.948 69.948 0 00472 77.944C472 39.376 440.624 8 402.048 8H380.84a61.76 61.76 0 00-49.664 24.96l-5.832 1.464c-4.536 1.128-8.68 3.064-12.376 5.576H24v208h77.752l-12 48H8v16h496v-34.096c0-30.4-21.64-56.784-51.448-62.744zM217.752 248l12 48h-83.504l12-48h59.504zm16.496 0h37.272c-4.784 9-7.52 19.192-7.52 29.904V296h-17.752l-12-48zM280 277.904c0-22.8 16.224-42.592 38.584-47.064l6.76-1.352L355.576 296H280v-18.096zm74.352-59.784l14.888 7.44-20.608 16.488-7.288-16.032c4.984-1.584 9.432-4.288 13.008-7.896zm31.88 29.88h-4.464l-3.152-9.448 5.384-4.304 5.384 4.304-3.152 9.448zm-18.448 8.648l-3.36 20.152-8.96-19.72 9.84-7.872 2.48 7.44zM382.776 264h2.448l5.336 32h-13.12l5.336-32zm17.44-7.352l2.48-7.44 9.84 7.872-8.96 19.72-3.36-20.152zm26.44-30.624l-7.288 16.032-20.608-16.488 14.888-7.44c3.576 3.6 8.024 6.304 13.008 7.896zm-21.64-24.144c.16.8.432 1.56.648 2.336L384 215.056l-21.672-10.832c.216-.776.488-1.536.648-2.336l2.616-13.056C371.368 190.848 377.544 192 384 192c6.456 0 12.632-1.152 18.408-3.176l2.608 13.056zM424 136c0 22.056-17.944 40-40 40s-40-17.944-40-40v-31.016a23.974 23.974 0 0118.064-23.256C365.8 90.128 374.224 96 384 96h32c4.408 0 8 3.584 8 8v32zm16 8h-.64c.376-2.624.64-5.28.64-8v-24c8.824 0 16 7.176 16 16s-7.176 16-16 16zM329.224 49.936l11.712-2.928 1.712-2.568A45.819 45.819 0 01380.84 24h21.208C431.8 24 456 48.2 456 77.944c0 5.808-.936 11.544-2.768 17.064l-1.136 3.4C448.36 96.88 444.28 96 440 96h-1.472c-3.312-9.288-12.112-16-22.528-16h-32c-4.408 0-8-3.584-8-8s3.592-8 8-8h8V48h-8c-10.992 0-20.288 7.432-23.112 17.528l-2.592.648C343.456 69.888 332.464 81.6 329.144 96H328c-4.024 0-7.832.832-11.376 2.184C314.504 90.816 312 80.36 312 72c0-10.456 7.08-19.52 17.224-22.064zM328 112v24c0 2.72.264 5.376.64 8H328c-8.824 0-16-7.176-16-16s7.176-16 16-16zM40 56h259.584C297.344 60.92 296 66.312 296 72c0 12.864 4.52 28.696 6.968 36.312C298.672 113.76 296 120.536 296 128c0 17.648 14.352 32 32 32h5.48a56.339 56.339 0 0017.36 21.024l-3.544 17.72a15.967 15.967 0 01-12.552 12.552l-19.296 3.856c-12.376 2.472-23.296 8.504-31.896 16.84H40V56zm78.248 192h23.504l-12 48h-23.504l12-48zM488 296h-75.576l30.232-66.512 6.76 1.352c22.36 4.472 38.584 24.272 38.584 47.064V296z" fill="#2A47B6"/><path d="M280 88h-96v32h-32V72H56v96h48v48h112v-48h64V88zM72 88h64v64H72V88zm128 112h-80v-32h32v-32h48v64zm64-48h-48v-32h-16v-16h64v48zm187.912 274.816C464.384 416.312 472 400.688 472 384v-8c0-26.472-21.528-48-48-48h-16c-26.472 0-48 21.528-48 48v8c0 16.696 7.624 32.328 20.08 42.816a71.694 71.694 0 00-44.136 36.24c-9-17.392-24.856-30.648-43.992-36.184C304.192 416.592 312 401.192 312 384v-8c0-26.472-21.528-48-48-48h-16c-26.472 0-48 21.528-48 48v8c0 17.192 7.808 32.592 20.048 42.872-19.16 5.544-35.024 18.816-44.016 36.24-8.984-17.424-24.864-30.736-44.024-36.288C144.216 416.544 152 401.168 152 384v-16c0-22.056-17.944-40-40-40H56c-8.824 0-16 7.176-16 16v40c0 17.192 7.808 32.592 20.048 42.872C30.032 435.552 8 463.224 8 496v8h496v-8a71.786 71.786 0 00-52.088-69.184zM432 440c0 8.824-7.176 16-16 16s-16-7.176-16-16c0-.8.2-1.544.312-2.312C405.36 439.16 410.648 440 416 440s10.648-.84 15.688-2.312c.112.768.312 1.512.312 2.312zm-56-56v-8c0-17.648 14.352-32 32-32h16c17.648 0 32 14.352 32 32v8c0 15.416-9.032 29.624-23.072 36.224-10.256 4.936-23.536 4.968-33.92-.032C385.032 413.624 376 399.416 376 384zm-160 0v-8c0-17.648 14.352-32 32-32h16c17.648 0 32 14.352 32 32v8c0 22.056-17.944 40-40 40s-40-17.944-40-40zm24 56h32c28.152 0 51.456 20.912 55.36 48H184.64c3.904-27.088 27.208-48 55.36-48zM56 384v-40h56c13.232 0 24 10.768 24 24v16c0 22.056-17.944 40-40 40s-40-17.944-40-40zM24.568 488c3.896-27.104 27.264-48 55.432-48h32c28.168 0 51.536 20.896 55.432 48H24.568zm320.056 0c3.104-21.784 18.624-39.64 39.6-45.744C385.408 458.832 399.128 472 416 472c16.864 0 30.584-13.16 31.768-29.728 20.984 6.104 36.568 23.944 39.664 45.728H344.624z" fill="#2A47B6"/></svg>

<?xml version="1.0" encoding="UTF-8"?> <svg xmlns="http://www.w3.org/2000/svg" width="512" height="512" viewBox="0 0 512 512" fill="none"> <path d="M452.552 215.16L433.256 211.304C426.904 210.032 421.968 205.104 420.704 198.752L417.16 181.032C424.544 175.576 430.528 168.368 434.52 160.008H440C457.648 160.008 472 145.656 472 128.008C472 120.8 469.52 114.216 465.48 108.864L468.408 100.08C470.792 92.912 472 85.48 472 77.944C472 39.376 440.624 8 402.048 8H380.84C361.168 8 342.832 17.272 331.176 32.96L325.344 34.424C320.808 35.552 316.664 37.488 312.968 40H24V248H101.752L89.752 296H8V312H504V277.904C504 247.504 482.36 221.12 452.552 215.16V215.16ZM217.752 248L229.752 296H146.248L158.248 248H217.752ZM234.248 248H271.52C266.736 257 264 267.192 264 277.904V296H246.248L234.248 248ZM280 277.904C280 255.104 296.224 235.312 318.584 230.84L325.344 229.488L355.576 296H280V277.904ZM354.352 218.12L369.24 225.56L348.632 242.048L341.344 226.016C346.328 224.432 350.776 221.728 354.352 218.12V218.12ZM386.232 248H381.768L378.616 238.552L384 234.248L389.384 238.552L386.232 248ZM367.784 256.648L364.424 276.8L355.464 257.08L365.304 249.208L367.784 256.648ZM382.776 264H385.224L390.56 296H377.44L382.776 264ZM400.216 256.648L402.696 249.208L412.536 257.08L403.576 276.8L400.216 256.648ZM426.656 226.024L419.368 242.056L398.76 225.568L413.648 218.128C417.224 221.728 421.672 224.432 426.656 226.024V226.024ZM405.016 201.88C405.176 202.68 405.448 203.44 405.664 204.216L384 215.056L362.328 204.224C362.544 203.448 362.816 202.688 362.976 201.888L365.592 188.832C371.368 190.848 377.544 192 384 192C390.456 192 396.632 190.848 402.408 188.824L405.016 201.88ZM424 136C424 158.056 406.056 176 384 176C361.944 176 344 158.056 344 136V104.984C344 93.992 351.424 84.448 362.064 81.728C365.8 90.128 374.224 96 384 96H416C420.408 96 424 99.584 424 104V136ZM440 144H439.36C439.736 141.376 440 138.72 440 136V112C448.824 112 456 119.176 456 128C456 136.824 448.824 144 440 144ZM329.224 49.936L340.936 47.008L342.648 44.44C351.184 31.64 365.464 24 380.84 24H402.048C431.8 24 456 48.2 456 77.944C456 83.752 455.064 89.488 453.232 95.008L452.096 98.408C448.36 96.88 444.28 96 440 96H438.528C435.216 86.712 426.416 80 416 80H384C379.592 80 376 76.416 376 72C376 67.584 379.592 64 384 64H392V48H384C373.008 48 363.712 55.432 360.888 65.528L358.296 66.176C343.456 69.888 332.464 81.6 329.144 96H328C323.976 96 320.168 96.832 316.624 98.184C314.504 90.816 312 80.36 312 72C312 61.544 319.08 52.48 329.224 49.936V49.936ZM328 112V136C328 138.72 328.264 141.376 328.64 144H328C319.176 144 312 136.824 312 128C312 119.176 319.176 112 328 112ZM40 56H299.584C297.344 60.92 296 66.312 296 72C296 84.864 300.52 100.696 302.968 108.312C298.672 113.76 296 120.536 296 128C296 145.648 310.352 160 328 160H333.48C337.472 168.36 343.456 175.568 350.84 181.024L347.296 198.744C346.024 205.096 341.096 210.024 334.744 211.296L315.448 215.152C303.072 217.624 292.152 223.656 283.552 231.992H40V56ZM118.248 248H141.752L129.752 296H106.248L118.248 248ZM488 296H412.424L442.656 229.488L449.416 230.84C471.776 235.312 488 255.112 488 277.904V296Z" fill="#2A47B6"></path> <path d="M280 88H184V120H152V72H56V168H104V216H216V168H280V88ZM72 88H136V152H72V88ZM200 200H120V168H152V136H200V200ZM264 152H216V120H200V104H264V152Z" fill="#2A47B6"></path> <path d="M451.912 426.816C464.384 416.312 472 400.688 472 384V376C472 349.528 450.472 328 424 328H408C381.528 328 360 349.528 360 376V384C360 400.696 367.624 416.328 380.08 426.816C360.696 432.344 344.872 445.648 335.944 463.056C326.944 445.664 311.088 432.408 291.952 426.872C304.192 416.592 312 401.192 312 384V376C312 349.528 290.472 328 264 328H248C221.528 328 200 349.528 200 376V384C200 401.192 207.808 416.592 220.048 426.872C200.888 432.416 185.024 445.688 176.032 463.112C167.048 445.688 151.168 432.376 132.008 426.824C144.216 416.544 152 401.168 152 384V368C152 345.944 134.056 328 112 328H56C47.176 328 40 335.176 40 344V384C40 401.192 47.808 416.592 60.048 426.872C30.032 435.552 8 463.224 8 496V504H504V496C504 463.304 482.32 435.488 451.912 426.816V426.816ZM432 440C432 448.824 424.824 456 416 456C407.176 456 400 448.824 400 440C400 439.2 400.2 438.456 400.312 437.688C405.36 439.16 410.648 440 416 440C421.352 440 426.648 439.16 431.688 437.688C431.8 438.456 432 439.2 432 440ZM376 384V376C376 358.352 390.352 344 408 344H424C441.648 344 456 358.352 456 376V384C456 399.416 446.968 413.624 432.928 420.224C422.672 425.16 409.392 425.192 399.008 420.192C385.032 413.624 376 399.416 376 384ZM216 384V376C216 358.352 230.352 344 248 344H264C281.648 344 296 358.352 296 376V384C296 406.056 278.056 424 256 424C233.944 424 216 406.056 216 384ZM240 440H272C300.152 440 323.456 460.912 327.36 488H184.64C188.544 460.912 211.848 440 240 440ZM56 384V344H112C125.232 344 136 354.768 136 368V384C136 406.056 118.056 424 96 424C73.944 424 56 406.056 56 384ZM24.568 488C28.464 460.896 51.832 440 80 440H112C140.168 440 163.536 460.896 167.432 488H24.568ZM344.624 488C347.728 466.216 363.248 448.36 384.224 442.256C385.408 458.832 399.128 472 416 472C432.864 472 446.584 458.84 447.768 442.272C468.752 448.376 484.336 466.216 487.432 488H344.624Z" fill="#2A47B6"></path> </svg>
